X:1
T:English Suite no.3, BWV 808
T:English Suite no.3, BWV 808
T:Allemande
T:J.S. BACH (1685-1750)
C:J.S. BACH(1685-1750)
%%score { ( 1 3 5 ) | ( 2 4 ) }
L:1/8
Q:1/4=92
M:4/4
K:Bb
V:1 treble nm="Piano" snm="Pno."
V:3 treble 
V:5 treble 
V:2 bass 
V:4 bass 
V:1
"^Allegro moderato"!mf! B/ |"^2" B2- B/g/^f/g/ c2- c/a/g/a/ | %2
"^2" d/G/B/"^1"d/"^3" g/b/a/g/ ^f/g/"^5"a/"^2"_e/ d/"^4"c/B/A/ | %3
!p!"^4" B2- B/"^2"B/c/e/"^1 4" (A2- A/)"^2"A/B/d/ | %4
"^2" G2- G/G/A/c/"^1" ^F/"^2"A/"_cresc."c/d/ G/B/d/e/ | %5
 A/c/d/^f/"^1" B/d/"^3"f/g/!f! a/g/f/=e/ d/"^3"_e/Pe/d/4e/4 | =f4"^1" x4 | %7
"^2" e/c/e/g/ c'/_b/=a/"^1"g/"^3" ^f/g/a/e/ d/"^4"c/B/A/ |"^5" B4"^5"!>(! A4-!>)! | %9
 A/!p!"^1"D/"^2"F/"^1"B/"^3" d/f/=e/d/ ^c/d/"^5"e/"^2"_B/ A/"^4"G/F/=E/ | %10
"_cresc." ^F/G/A/_E/ D/"^4"C/[I:staff +1]B,/A,/ B,/C/D/_A,/ G,/"_3"F,/E,/D,/ | %11
!f![I:staff -1] z2 z ^c"^1" d/=e/f/b/"^3""^2"!>(! Pe>d |"^5" (d4!>)!!p!"^3""^2" d3) z/ ::!mf! A/ | %14
 A/a/^f/d/ A/^F/"^1"G/A/ =B/A/G/"^4""^2"c/"^1" d/"^3"e/=f/g/ | %15
 Ped/c/"^4" Mg>g"^5" g/"^2"B/A/"^4"c/ B/A/G/"^4"=e/ | f>"^3"_e d/c/"^4"B/A/ G/F/G/B/"^1" c/d/e/c/ | %17
"^4" B/A/G/F/ f>A B/e/d/c/!>(! Tc>B!>)! | %18
"^3"!p! B2-"_cresc." B/d/c/"_poco   a   poco"d/"^2" E/(D/"^2 1"C-) C/A/B/c/ | %19
 ^F/d/A/F/ D/^C/D/=E/ F/E/D/"^4""^2"G/"^1" A/"^3"B/=c/d/ | %20
 B/A/G/A/ B/"^1"c/d/_e/ f"^1"B!f!"^3" M_a>(b |"^2 5" g4)"^4 5""^1" f2-"^2" f/"^4"e/"^5"d/c/ | %22
 =B2"^4" Pe>e e/d/"_dim."c/_B/"^2""^4" A/"^5"B/c/G/ | %23
 ^F/"^1"G/!p!"^3"A MA>A A/G/F/G/"^4""_cresc." c>c | c2 z!f! ^F G/A/B/e/"^2""^3"!>(! TA>G | %25
"^5" x2 C/!>)!D/E!p! [DG]3 z/ :| %26
V:2
 z/ | z/ G,,/B,,/D,/ G,/B,/"_1"A,/G,/ ^F,/G,/A,/E,/"_1" D,/C,/B,,/A,,/ | %2
 !>!B,,2- B,,/D,/"_4"C,/E,/"_4" !>!D,2- D,/=E,/^F,/"_5"D,/ | %3
"_2" z/"^3"[I:staff -1] G/=F/D/"^1" E2- E/"^3"F/E/C/"^1" D2- | %4
 D/E/"^1"D/B,/"^1" C2-"_4 5" C"^2"[I:staff +1]A,"^1"B,"^2"G, | %5
 ^F,"_1""_5"A,"_1""_2" D,2- D,D- D/C/"_1"=B,/A,/ | %6
 G,/D,/G,/"_2"=B,/ D/E/"_1"D/C/ B,/C/D/_A,/"_1" G,/F,/E,/D,/ | %7
 C,2- C,/C,/E,/G,/ C"_3""_2" D,=E,"_2""_5"^F, | %8
 z/"^1" G,/"^1"B,/C/ G/=F/_E/D/"^2" ^C/"^1"D/"^3"=E/"^1"B,/"^1" A,/"^1"G,/F,/"^1"=E,/ | %9
 D,2 z"_2""_1" A, G,2"^3""^2" =E,2 |"_1" D, x x2 x4 | %11
"^3" ^C,/D,/=E,/_B,,/"_1" A,,/G,,/F,,/=E,,/ (F,,G,,A,,)A,, | D,,2 z z/"^2" ^C/ D3 z/ :: z/ | %14
 D,2- D,/"_1"A,/"_2"B,/C/"_3" z"_4""_1" C2 =B, | %15
 z/ C/ x"_4" C,/=B,,/C,/D,/ =E,/D,/"_5"C,/"_2"F,/ G,/"_3"A,/_B,/C/ | A,/G,/F, B,F,"^1" E,E,,E,C, | %17
 F,/F,,/"_3"A,,/"_1"C,/"_3" E,/G,/F,/E,/"_1" D,/"_3"C,/B,,/E,/ F,F,, | %18
 B,,/"_1"B,/"_2"F,/"_1"D,/"_3" B,,/G,,/A,,/B,,/ C,/B,,/"_5"A,,/"_2"D,/ =E,/"_3"^F,/G,/A,/ | %19
 D,2- D,/"_1"G,/^F,/G,/"_4" z G,2 F, | G, x x2 x4 | %21
 E,,2"_1 5" (E,2- E,/)G/F/E/"_4" D/"_2"E/F/"_3"_A,/ | %22
"_1" G,/F,/E,/D,/"_5" C,/"_3"D,/E,/"_5"G,,/"_4" (^F,,G,,C,=A,,) | %23
 D, z/ E/ D/C/B,/A,/ B,/C/D/B,/"_1" A,/G,/^F,/=E,/ | %24
 ^F,/G,/A,/_E,/"_1" D,/C,/B,,/A,,/ (B,,C,D,D,,) | G,,2 z z/ ^F,/ G,3 z/ :| %26
V:3
 x/ | G2 z2 A2 z2 | x8 | x8 | x8 | x8 | %6
 =B2- B/"^2"c/Pc/B/4c/4 d/"^2"e/Pe/d/4e/4"^1" f/"^3"_a/g/f/ | x8 | x8 | x8 | x8 | x4 d2 ^c2 | %12
 z/ =c/B/A/ G/A/B ^F3 z/ :: x/ | x8 | x8 | x8 | x6 A2 | x8 | x8 | x8 | %21
 z/"^1" f/"^3"e/d/ c/d/(e/"^2"B/) A2 _A2 | A/_A/G- G2 =A z x2 | x6 z/ B/A/G/ | A2 x2 G2 ^F2 | %25
 z/ =F/E/D/ C2 B,2 x3/2 :| %26
V:4
 x/ | x8 | x8 | G,3"_4" _E, =F,3 D, | E,3 (C, D,4-) | D,C, B,,G,, D,, x3 | x8 | x5 C,_B,,A,, | %8
 G,,8 | F,,2 z F, =E,D,^C,A,, | D,=C,B,,"_1"A,, G,,"_1"=F,,_E,,D,, | ^C,,2 x6 | %12
 x2 z2 z/"_4" ^F,/G,/A,/ D, x/ :: x/ | x4 =F,E,F,G, | C,/C/G,/"_3"E,/ x6 | x8 | x8 | x8 | %19
 x4 C,B,,C,D, | G,/G,,/B,,/D,/ G,/G,/=F,/E,/ D,/E,/"_1"F,/"_2"C,/ B,,/_A,,/"_1"G,,/"_4"F,,/ | x8 | %22
 x8 | x8 | x8 | x2 z2 z/ B,,/C,/D,/ G,, x/ :| %26
V:5
 x/ | x8 | x8 | x8 | x8 | x8 | d2 x6 | x8 | x8 | x8 | x8 | x8 | z2 G2 A3 x/ :: x/ | x8 | x8 | x8 | %17
 x8 | x8 | x8 | x8 | x8 | x8 | x8 | x8 | G4 x7/2 :| %26

